ui/StatusQ/src/assets/img/icons/profile.svg

<svg fill="none" height="24" viewBox="0 0 24 24" width="24" xmlns="http://www.w3.org/2000/svg"><g fill="#000"><path clip-rule="evenodd" d="m12 13c1.933 0 3.5-1.567 3.5-3.5s-1.567-3.5-3.5-3.5-3.5 1.567-3.5 3.5 1.567 3.5 3.5 3.5zm0-1.5c1.1046 0 2-.8954 2-2 0-1.10457-.8954-2-2-2s-2 .89543-2 2c0 1.1046.8954 2 2 2z" fill-rule="evenodd"/><path d="m16.4465 16.2731c.3654.2841.3755.8223.0192 1.1178-.3046.2526-.7427.2091-1.0614-.0254-.953-.7012-2.1302-1.1155-3.4041-1.1155-1.274 0-2.45119.4143-3.40423 1.1155-.31869.2345-.75678.278-1.06134.0254-.35635-.2955-.34627-.8337.0192-1.1178 1.22778-.9546 2.77067-1.5231 4.44637-1.5231 1.6756 0 3.2185.5685 4.4463 1.5231z"/><path clip-rule="evenodd" d="m12 22c5.5228 0 10-4.4772 10-10 0-5.52285-4.4772-10-10-10-5.52285 0-10 4.47715-10 10 0 5.5228 4.47715 10 10 10zm0-1.5c4.6944 0 8.5-3.8056 8.5-8.5 0-4.69442-3.8056-8.5-8.5-8.5-4.69442 0-8.5 3.80558-8.5 8.5 0 4.6944 3.80558 8.5 8.5 8.5z" fill-rule="evenodd"/></g></svg>

<svg width="24" height="24" viewBox="0 0 24 24" fill="none" xmlns="http://www.w3.org/2000/svg">
<path fill-rule="evenodd" clip-rule="evenodd" d="M12 13C13.933 13 15.5 11.433 15.5 9.5C15.5 7.567 13.933 6 12 6C10.067 6 8.5 7.567 8.5 9.5C8.5 11.433 10.067 13 12 13ZM12 11.5C13.1046 11.5 14 10.6046 14 9.5C14 8.39543 13.1046 7.5 12 7.5C10.8954 7.5 10 8.39543 10 9.5C10 10.6046 10.8954 11.5 12 11.5Z" fill="black"/>
<path d="M16.4465 16.2731C16.8119 16.5572 16.822 17.0954 16.4657 17.3909C16.1611 17.6435 15.723 17.6 15.4043 17.3655C14.4513 16.6643 13.2741 16.25 12.0002 16.25C10.7262 16.25 9.54901 16.6643 8.59597 17.3655C8.27728 17.6 7.83919 17.6435 7.53463 17.3909C7.17828 17.0954 7.18836 16.5572 7.55383 16.2731C8.78161 15.3185 10.3245 14.75 12.0002 14.75C13.6758 14.75 15.2187 15.3185 16.4465 16.2731Z" fill="black"/>
<path fill-rule="evenodd" clip-rule="evenodd" d="M12 22C17.5228 22 22 17.5228 22 12C22 6.47715 17.5228 2 12 2C6.47715 2 2 6.47715 2 12C2 17.5228 6.47715 22 12 22ZM12 20.5C16.6944 20.5 20.5 16.6944 20.5 12C20.5 7.30558 16.6944 3.5 12 3.5C7.30558 3.5 3.5 7.30558 3.5 12C3.5 16.6944 7.30558 20.5 12 20.5Z" fill="black"/>
</svg>
